32x32/apps/powder-player.svg

<svg xmlns="http://www.w3.org/2000/svg" width="32" height="32" version="1">
 <path style="opacity:0.2" d="m 16.574599,3.0000003 v 0.00137 A 3.1706084,3.183519 0 0 0 14.914442,3.4251942 L 5.5855577,8.833769 A 3.1706084,3.183519 0 0 0 4,11.591377 v 10.817149 a 3.1706084,3.183519 0 0 0 1.5855577,2.756241 l 9.3288843,5.408575 a 3.1706084,3.183519 0 0 0 3.171116,0 l 9.328884,-5.408575 A 3.1706084,3.183519 0 0 0 29,22.408526 V 11.591377 A 3.1706084,3.183519 0 0 0 27.414442,8.833769 L 18.085558,3.4251942 A 3.1706084,3.183519 0 0 0 16.574599,3.0000003 Z"/>
 <path style="fill:#17191e" d="m 16.471615,2.5600012 v 0.00132 A 3.0437841,3.0561782 0 0 0 14.877864,2.9681873 L 5.922135,8.1604191 A 3.0437841,3.0561782 0 0 0 4.4,10.807722 v 10.384462 a 3.0437841,3.0561782 0 0 0 1.522135,2.645991 l 8.955729,5.192232 a 3.0437841,3.0561782 0 0 0 3.044272,0 l 8.955728,-5.192232 A 3.0437841,3.0561782 0 0 0 28.4,21.192184 V 10.807722 A 3.0437841,3.0561782 0 0 0 26.877864,8.1604191 L 17.922136,2.9681873 A 3.0437841,3.0561782 0 0 0 16.471615,2.5600012 Z"/>
 <path style="fill:#f1d41a" d="m 16.574219,2 v 0.00195 c -0.399516,-0.00898 -0.797121,0.057947 -1.171875,0.1972657 L 15,2.4316406 7,7.0507812 V 10.515625 L 16.5,5.03125 19.546875,3.2734375 18.085938,2.4257812 c -0.322445,-0.1852723 -0.67481,-0.312203 -1.041016,-0.375 -0.02274,-0.00416 -0.04553,-0.00806 -0.06836,-0.011719 C 16.905256,2.0281477 16.8336,2.0196792 16.761719,2.0136719 16.700666,2.0073312 16.639442,2.002772 16.578125,2 Z"/>
 <path style="fill:#aed447" d="M 7,7.0136719 5.5859375,7.8339844 C 4.6044562,8.4026473 3.9998444,9.4540167 4,10.591797 v 9.160156 l 3,1.732422 v -10.96875 z"/>
 <path style="fill:#d25e91" d="M 26,10.515625 V 12 24.984375 l 1.414062,-0.820313 C 28.394942,23.595748 28.99946,22.545285 29,21.408203 v -9.160156 z"/>
 <path style="fill:#7acdcb" d="m 26,21.484375 -9.5,5.484375 -3.046875,1.757812 1.460937,0.847657 c 0.816559,0.472167 1.799975,0.555192 2.683594,0.226562 L 18,29.568359 26,24.951172 Z"/>
 <path style="fill:#ec8239" d="M 19.501953,3.2988281 16.5,5.03125 29,12.248047 v -1.65625 C 28.999144,9.5970727 28.535267,8.6599263 27.746094,8.0585938 Z"/>
 <path style="fill:#5e8a93" d="m 4,19.751953 v 1.65625 c 0.0012,0.999533 0.4698577,1.940471 1.265625,2.541016 L 5.5,24.083984 13.496094,28.701172 16.5,26.96875 7,21.484375 Z"/>
 <path style="opacity:0.2;fill:#f4f4f7" d="M 16.574219 2 L 16.574219 2.0019531 A 3.1706084 3.183519 0 0 0 14.914062 2.4257812 L 5.5859375 7.8339844 A 3.1706084 3.183519 0 0 0 4 10.591797 L 4 11.591797 A 3.1706084 3.183519 0 0 1 5.5859375 8.8339844 L 14.914062 3.4257812 A 3.1706084 3.183519 0 0 1 16.574219 3.0019531 L 16.574219 3 A 3.1706084 3.183519 0 0 1 18.085938 3.4257812 L 27.414062 8.8339844 A 3.1706084 3.183519 0 0 1 29 11.591797 L 29 10.591797 A 3.1706084 3.183519 0 0 0 27.414062 7.8339844 L 18.085938 2.4257812 A 3.1706084 3.183519 0 0 0 16.574219 2 z"/>
 <path style="opacity:0.2" d="M 16.5,8 A 1.5,1.5 0 0 0 15,9.5 1.5,1.5 0 0 0 16.5,11 1.5,1.5 0 0 0 18,9.5 1.5,1.5 0 0 0 16.5,8 Z m -2,4 A 1.5,1.5 0 0 0 13,13.5 1.5,1.5 0 0 0 14.5,15 1.5,1.5 0 0 0 16,13.5 1.5,1.5 0 0 0 14.5,12 Z m 4,0 A 1.5,1.5 0 0 0 17,13.5 1.5,1.5 0 0 0 18.5,15 1.5,1.5 0 0 0 20,13.5 1.5,1.5 0 0 0 18.5,12 Z m -6,4 A 1.5,1.5 0 0 0 11,17.5 1.5,1.5 0 0 0 12.5,19 1.5,1.5 0 0 0 14,17.5 1.5,1.5 0 0 0 12.5,16 Z m 4,0 A 1.5,1.5 0 0 0 15,17.5 1.5,1.5 0 0 0 16.5,19 1.5,1.5 0 0 0 18,17.5 1.5,1.5 0 0 0 16.5,16 Z m 4,0 A 1.5,1.5 0 0 0 19,17.5 1.5,1.5 0 0 0 20.5,19 1.5,1.5 0 0 0 22,17.5 1.5,1.5 0 0 0 20.5,16 Z m -10,4 A 1.5,1.5 0 0 0 9,21.5 1.5,1.5 0 0 0 10.5,23 1.5,1.5 0 0 0 12,21.5 1.5,1.5 0 0 0 10.5,20 Z m 4,0 A 1.5,1.5 0 0 0 13,21.5 1.5,1.5 0 0 0 14.5,23 1.5,1.5 0 0 0 16,21.5 1.5,1.5 0 0 0 14.5,20 Z m 4,0 A 1.5,1.5 0 0 0 17,21.5 1.5,1.5 0 0 0 18.5,23 1.5,1.5 0 0 0 20,21.5 1.5,1.5 0 0 0 18.5,20 Z m 4,0 A 1.5,1.5 0 0 0 21,21.5 1.5,1.5 0 0 0 22.5,23 1.5,1.5 0 0 0 24,21.5 1.5,1.5 0 0 0 22.5,20 Z"/>
 <circle style="fill:#f4f4f7" cx="10.5" cy="20.5" r="1.5"/>
 <circle style="fill:#f4f4f7" cx="14.5" cy="20.5" r="1.5"/>
 <circle style="fill:#f4f4f7" cx="18.5" cy="20.5" r="1.5"/>
 <circle style="fill:#f4f4f7" cx="22.5" cy="20.5" r="1.5"/>
 <circle style="fill:#f4f4f7" cx="12.5" cy="16.5" r="1.5"/>
 <circle style="fill:#f4f4f7" cx="16.5" cy="16.5" r="1.5"/>
 <circle style="fill:#f4f4f7" cx="20.5" cy="16.5" r="1.5"/>
 <circle style="fill:#f4f4f7" cx="14.5" cy="12.5" r="1.5"/>
 <circle style="fill:#f4f4f7" cx="18.5" cy="12.5" r="1.5"/>
 <circle style="fill:#f4f4f7" cx="16.5" cy="8.5" r="1.5"/>
</svg>

<svg xmlns="http://www.w3.org/2000/svg" width="32" height="32" version="1"><path style="opacity:.2" d="M16.575 3v.001a3.17 3.184 0 0 0-1.66.424l-9.33 5.409A3.17 3.184 0 0 0 4 11.59V22.41a3.17 3.184 0 0 0 1.586 2.756l9.328 5.408a3.17 3.184 0 0 0 3.172 0l9.328-5.408A3.17 3.184 0 0 0 29 22.409V11.59a3.17 3.184 0 0 0-1.586-2.757l-9.328-5.409A3.17 3.184 0 0 0 16.575 3z"/><path style="fill:#17191e" d="M16.472 2.56v.001a3.044 3.056 0 0 0-1.594.407L5.922 8.16A3.044 3.056 0 0 0 4.4 10.808v10.384a3.044 3.056 0 0 0 1.522 2.646l8.956 5.192a3.044 3.056 0 0 0 3.044 0l8.956-5.192a3.044 3.056 0 0 0 1.522-2.646V10.808a3.044 3.056 0 0 0-1.522-2.648l-8.956-5.192a3.044 3.056 0 0 0-1.45-.408z"/><path style="fill:#f1d41a" d="M16.574 2v.002a3.16 3.16 0 0 0-1.172.197L15 2.432 7 7.05v3.465l9.5-5.485 3.047-1.758-1.461-.847a3.162 3.162 0 0 0-1.324-.412A3.158 3.158 0 0 0 16.578 2z"/><path style="fill:#aed447" d="m7 7.014-1.414.82A3.186 3.186 0 0 0 4 10.592v9.16l3 1.732V10.516z"/><path style="fill:#d25e91" d="M26 10.516v14.468l1.414-.82A3.186 3.186 0 0 0 29 21.408v-9.16z"/><path style="fill:#7acdcb" d="m26 21.484-9.5 5.485-3.047 1.758 1.461.847a3.16 3.16 0 0 0 2.684.227l.402-.233 8-4.617z"/><path style="fill:#ec8239" d="M19.502 3.299 16.5 5.03 29 12.248v-1.656c0-.995-.465-1.932-1.254-2.533z"/><path style="fill:#5e8a93" d="M4 19.752v1.656c.001 1 .47 1.94 1.266 2.541l.234.135 7.996 4.617L16.5 26.97 7 21.484z"/><path style="opacity:.2;fill:#f4f4f7" d="M16.574 2v.002a3.17 3.184 0 0 0-1.66.424L5.586 7.834A3.17 3.184 0 0 0 4 10.592v1a3.17 3.184 0 0 1 1.586-2.758l9.328-5.408a3.17 3.184 0 0 1 1.66-.424V3a3.17 3.184 0 0 1 1.512.426l9.328 5.408A3.17 3.184 0 0 1 29 11.592v-1a3.17 3.184 0 0 0-1.586-2.758l-9.328-5.408A3.17 3.184 0 0 0 16.574 2z"/><path style="opacity:.2" d="M16.5 8A1.5 1.5 0 0 0 15 9.5a1.5 1.5 0 0 0 1.5 1.5A1.5 1.5 0 0 0 18 9.5 1.5 1.5 0 0 0 16.5 8zm-2 4a1.5 1.5 0 0 0-1.5 1.5 1.5 1.5 0 0 0 1.5 1.5 1.5 1.5 0 0 0 1.5-1.5 1.5 1.5 0 0 0-1.5-1.5zm4 0a1.5 1.5 0 0 0-1.5 1.5 1.5 1.5 0 0 0 1.5 1.5 1.5 1.5 0 0 0 1.5-1.5 1.5 1.5 0 0 0-1.5-1.5zm-6 4a1.5 1.5 0 0 0-1.5 1.5 1.5 1.5 0 0 0 1.5 1.5 1.5 1.5 0 0 0 1.5-1.5 1.5 1.5 0 0 0-1.5-1.5zm4 0a1.5 1.5 0 0 0-1.5 1.5 1.5 1.5 0 0 0 1.5 1.5 1.5 1.5 0 0 0 1.5-1.5 1.5 1.5 0 0 0-1.5-1.5zm4 0a1.5 1.5 0 0 0-1.5 1.5 1.5 1.5 0 0 0 1.5 1.5 1.5 1.5 0 0 0 1.5-1.5 1.5 1.5 0 0 0-1.5-1.5zm-10 4A1.5 1.5 0 0 0 9 21.5a1.5 1.5 0 0 0 1.5 1.5 1.5 1.5 0 0 0 1.5-1.5 1.5 1.5 0 0 0-1.5-1.5zm4 0a1.5 1.5 0 0 0-1.5 1.5 1.5 1.5 0 0 0 1.5 1.5 1.5 1.5 0 0 0 1.5-1.5 1.5 1.5 0 0 0-1.5-1.5zm4 0a1.5 1.5 0 0 0-1.5 1.5 1.5 1.5 0 0 0 1.5 1.5 1.5 1.5 0 0 0 1.5-1.5 1.5 1.5 0 0 0-1.5-1.5zm4 0a1.5 1.5 0 0 0-1.5 1.5 1.5 1.5 0 0 0 1.5 1.5 1.5 1.5 0 0 0 1.5-1.5 1.5 1.5 0 0 0-1.5-1.5z"/><circle style="fill:#f4f4f7" cx="10.5" cy="20.5" r="1.5"/><circle style="fill:#f4f4f7" cx="14.5" cy="20.5" r="1.5"/><circle style="fill:#f4f4f7" cx="18.5" cy="20.5" r="1.5"/><circle style="fill:#f4f4f7" cx="22.5" cy="20.5" r="1.5"/><circle style="fill:#f4f4f7" cx="12.5" cy="16.5" r="1.5"/><circle style="fill:#f4f4f7" cx="16.5" cy="16.5" r="1.5"/><circle style="fill:#f4f4f7" cx="20.5" cy="16.5" r="1.5"/><circle style="fill:#f4f4f7" cx="14.5" cy="12.5" r="1.5"/><circle style="fill:#f4f4f7" cx="18.5" cy="12.5" r="1.5"/><circle style="fill:#f4f4f7" cx="16.5" cy="8.5" r="1.5"/></svg>
